src/assets/outline/SearchFavorite.svg

<svg width="24" height="24" viewBox="0 0 24 24"  xmlns="http://www.w3.org/2000/svg">
<path d="M11 20.75C5.62 20.75 1.25 16.38 1.25 11C1.25 5.62 5.62 1.25 11 1.25C11.41 1.25 11.75 1.59 11.75 2C11.75 2.41 11.41 2.75 11 2.75C6.45 2.75 2.75 6.45 2.75 11C2.75 15.55 6.45 19.25 11 19.25C15.55 19.25 19.25 15.55 19.25 11C19.25 10.59 19.59 10.25 20 10.25C20.41 10.25 20.75 10.59 20.75 11C20.75 16.38 16.38 20.75 11 20.75Z" />
<path d="M16.4999 9.53921C15.5799 9.53921 13.4399 8.41921 12.7799 6.35921C12.3299 4.94921 12.8499 3.09921 14.4799 2.56921C15.1799 2.33921 15.9099 2.44921 16.4899 2.81921C17.0599 2.44921 17.8099 2.34921 18.5099 2.56921C20.1399 3.09921 20.6699 4.94921 20.2099 6.35921C19.5599 8.45921 17.3099 9.53921 16.4999 9.53921ZM14.2099 5.90921C14.6699 7.35921 16.2299 8.01921 16.5099 8.04921C16.8299 8.01921 18.3599 7.27921 18.7799 5.91921C19.0099 5.18921 18.7799 4.24921 18.0499 4.00921C17.7399 3.90921 17.3199 3.96921 17.1199 4.25921C16.9799 4.46921 16.7599 4.58921 16.5099 4.59921C16.2799 4.60921 16.0299 4.48921 15.8899 4.28921C15.6599 3.95921 15.2399 3.90921 14.9399 3.99921C14.2199 4.23921 13.9799 5.17921 14.2099 5.90921Z" />
<path d="M20.1601 22.79C20.0801 22.79 20.0001 22.78 19.9301 22.77C19.4601 22.71 18.6101 22.39 18.1301 20.96C17.8801 20.21 17.9701 19.46 18.3801 18.89C18.7901 18.32 19.4801 18 20.2701 18C21.2901 18 22.0901 18.39 22.4501 19.08C22.8101 19.77 22.7101 20.65 22.1401 21.5C21.4301 22.57 20.6601 22.79 20.1601 22.79ZM19.5601 20.49C19.7301 21.01 19.9701 21.27 20.1301 21.29C20.2901 21.31 20.5901 21.12 20.9001 20.67C21.1901 20.24 21.2101 19.93 21.1401 19.79C21.0701 19.65 20.7901 19.5 20.2701 19.5C19.9601 19.5 19.7301 19.6 19.6001 19.77C19.4801 19.94 19.4601 20.2 19.5601 20.49Z" />
</svg>

<?xml version="1.0" encoding="UTF-8"?>
<svg width="24" height="24" viewBox="0 0 24 24" xmlns="http://www.w3.org/2000/svg">
 <path d="m11 20.75c-5.38 0-9.75-4.37-9.75-9.75s4.37-9.75 9.75-9.75c0.41 0 0.75 0.34 0.75 0.75s-0.34 0.75-0.75 0.75c-4.55 0-8.25 3.7-8.25 8.25s3.7 8.25 8.25 8.25 8.25-3.7 8.25-8.25c0-0.41 0.34-0.75 0.75-0.75s0.75 0.34 0.75 0.75c0 5.38-4.37 9.75-9.75 9.75z"/>
 <path d="m16.5 9.5392c-0.92 0-3.06-1.12-3.72-3.18-0.45-1.41 0.07-3.26 1.7-3.79 0.7-0.23 1.43-0.12 2.01 0.25 0.57-0.37 1.32-0.47 2.02-0.25 1.63 0.53 2.16 2.38 1.7 3.79-0.65 2.1-2.9 3.18-3.71 3.18zm-2.29-3.63c0.46 1.45 2.02 2.11 2.3 2.14 0.32-0.03 1.85-0.77 2.27-2.13 0.23-0.73 0-1.67-0.73-1.91-0.31-0.1-0.73-0.04-0.93 0.25-0.14 0.21-0.36 0.33-0.61 0.34-0.23 0.01-0.48-0.11-0.62-0.31-0.23-0.33-0.65-0.38-0.95-0.29-0.72 0.24-0.96 1.18-0.73 1.91z"/>
 <path d="m20.16 22.79c-0.08 0-0.16-0.01-0.23-0.02-0.47-0.06-1.32-0.38-1.8-1.81-0.25-0.75-0.16-1.5 0.25-2.07s1.1-0.89 1.89-0.89c1.02 0 1.82 0.39 2.18 1.08s0.26 1.57-0.31 2.42c-0.71 1.07-1.48 1.29-1.98 1.29zm-0.6-2.3c0.17 0.52 0.41 0.78 0.57 0.8s0.46-0.17 0.77-0.62c0.29-0.43 0.31-0.74 0.24-0.88s-0.35-0.29-0.87-0.29c-0.31 0-0.54 0.1-0.67 0.27-0.12 0.17-0.14 0.43-0.04 0.72z"/>
</svg>
